**kern
*staff1
!!pagebreak:original
*I"P1
*clefG2
*k[f#c#g#d#a#]
*M2/4
16d#/LL
16f#/
16b/
16dd#/JJ
=1
8ff#\L
16r
16ee#\Jk
[4ff#\
=2
8ff#\L]
16r
16ee#\Jk
[4ff#\
=3
8.ff#\L]
16ff#\k
8.bb\
16aa#\Jk
=4
4..ee\
16dd#\
=5
4..ee\
16dd#\
=6
4..ee\
16dd#\
=7
8.ee\L
16ee\k
8.aa#\
16gg#\Jk
=8
4.dd#\
=
*-
